X:9
T:O the Days When I was Young. VWMLa.009
%%VWML:Anon2-3049-p7-0
F:http://www.vwml.org/record/Anon2/3049/p7
R:Reel
S:Anon. MS, late 18thC, Vaughan Williams Mem. Library
O:England;Yorkshire
Z:vmp/efdss.Simon Wilson. Reviewed PJH 2008.
M:C|
L:1/8
Q:2/4=90
K:D
dB|AFDF E2dB|AFDF A2dB|AFEF B2eG|Fdec d2:|
dd|ccBB A2Ac|edcB A2dd|
ccBB A2AB/c/|dFED A2dB|\
AFDF E2dB|AFDF A2dB|AFDF B2(e/f/g/e/)|edAc d2|]
